icons/outline/table-options.svg

<!--
tags: [edit, chart, customization, repair, settings]
category: Database
version: "1.75"
unicode: "f25c"
-->
<svg
  xmlns="http://www.w3.org/2000/svg"
  width="24"
  height="24"
  viewBox="0 0 24 24"
  fill="none"
  stroke="currentColor"
  stroke-width="2"
  stroke-linecap="round"
  stroke-linejoin="round"
>
  <path d="M12 21h-7a2 2 0 0 1 -2 -2v-14a2 2 0 0 1 2 -2h14a2 2 0 0 1 2 2v7m-18 -2h18m-11 -7v18m9.001 -2m-2 0a2 2 0 1 0 4 0a2 2 0 1 0 -4 0m2 -3.5v1.5m0 4v1.5m3.031 -5.25l-1.299 .75m-3.463 2l-1.3 .75m0 -3.5l1.3 .75m3.463 2l1.3 .75" />
</svg>

<!--
tags: [edit, chart, customization, repair, settings]
category: Database
version: "1.75"
unicode: "f25c"
-->
<svg
  xmlns="http://www.w3.org/2000/svg"
  width="24"
  height="24"
  viewBox="0 0 24 24"
  fill="none"
  stroke="currentColor"
  stroke-width="2"
  stroke-linecap="round"
  stroke-linejoin="round"
>
    <path d="M12 21h-7a2 2 0 0 1 -2 -2v-14a2 2 0 0 1 2 -2h14a2 2 0 0 1 2 2v7M3 10h18M10 3v18M19.001 19m-2 0a2 2 0 1 0 4 0a2 2 0 1 0 -4 0M19.001 15.5v1.5M19.001 21v1.5M22.032 17.25l-1.299 .75M17.27 20l-1.3 .75M15.97 17.25l1.3 .75M20.733 20l1.3 .75" />
</svg>
